X: 16
T: Sí Bheag Sí Mhór
C: Turlough O'Carolan
Z: Will The Whistler
S: https://thesession.org/tunes/449#setting51463
R: waltz
M: 3/4
L: 1/8
K: Dmaj
de|: {a}f3e d2|d2 de d2|{A}B4 A2|F4 A2|{c}BA Bc d2|{f}e4 de|f2 {a}f2 (3efe|
d4 f2|B4 e2|A4 d2|F4 EA|D4 f2|B4 e2|A4 dc|d6|d4 de:|
|:f2 fe d2|{f}ed ef a2|{c'}b4 a2|f3 {a}fed|{f}e4 a2|f3 {a}fed|{c}d4 B2|{c}B4 A2|
F4 EA|D4 f2|B4 e2|A4 a2|{c'}ba gf ed|{g}e4 dc|d3 {f}edc|1 d4 de:|2 d6||

